X:37
T:Priest's Boots
R:Jig
S:A Mick Moloney album
Z:Added by alf.warnock@nrc.ca
M:6/8
L:1/8
Q:3/8=120
K:D
fg|:afa geg|fdf ecA|dcd fed |cAc efg|
afa geg|fdf ecA|dcd fef|[1 gec d2g:|[2 gec dcd|
:efe efe|efd cBA|dcd fed| cAc ecd|
efe efe| efd cBA|dcd fef|gec d2z:|
